X:63
T:The Dashing White Sergent
R:Reel
M:4/4
L:1/8
K:D
FE|:D2D2DEFG|A2A2A2fe|d2B2A2F2|B2E2EGFE|
|D2D2DEFG|A2A2A2f2|e2d2c2B2|1A3B AGFE:|2A4A2F2|
|A2Bc2d|e2 A2A4|B2c d2e|f2 B2B4|
|c4d4|e4f4|g2f2e2d2|c2B2A2G2|
|F2d2dcde|d2A2A4|B2e2edef|e2B2B4|
|A2d2dcde|f2d2dcde|f4e4|d2cB AGFE|
